icons/modern/jar.svg

<svg width="32" height="32" viewBox="0 0 32 32" fill="none" xmlns="http://www.w3.org/2000/svg">
<path d="M22.0328 5.07183L15.9843 3.93372L9.93587 5.07183V6.06899L15.9843 7.45909L22.0328 6.06899V5.07183Z" fill="url(#paint0_linear_4791_569)"/>
<path d="M22.0328 5.07183L15.9843 3.93372L9.93587 5.07183V6.06899L15.9843 7.45909L22.0328 6.06899V5.07183Z" fill="url(#paint1_radial_4791_569)"/>
<path d="M7.77925 6.06824C6.15775 6.06824 4.84326 7.29063 4.84326 8.79854L4.84326 27.2697C4.84326 28.7776 6.15775 30 7.77925 30H24.2208C25.8423 30 27.1567 28.7776 27.1567 27.2697V8.79854C27.1567 7.29063 25.8423 6.06824 24.2208 6.06824H7.77925Z" fill="url(#paint2_linear_4791_569)"/>
<path d="M7.77925 6.06824C6.15775 6.06824 4.84326 7.29063 4.84326 8.79854L4.84326 27.2697C4.84326 28.7776 6.15775 30 7.77925 30H24.2208C25.8423 30 27.1567 28.7776 27.1567 27.2697V8.79854C27.1567 7.29063 25.8423 6.06824 24.2208 6.06824H7.77925Z" fill="url(#paint3_radial_4791_569)"/>
<path d="M7.77925 6.06824C6.15775 6.06824 4.84326 7.29063 4.84326 8.79854L4.84326 27.2697C4.84326 28.7776 6.15775 30 7.77925 30H24.2208C25.8423 30 27.1567 28.7776 27.1567 27.2697V8.79854C27.1567 7.29063 25.8423 6.06824 24.2208 6.06824H7.77925Z" fill="url(#paint4_radial_4791_569)"/>
<path d="M7.94585 3.53555C7.94585 2.68742 8.63339 1.99988 9.48152 1.99988H22.4715C23.3196 1.99988 24.0072 2.68742 24.0072 3.53555V3.53555C24.0072 4.38368 23.3196 5.07122 22.4715 5.07122H9.48152C8.63339 5.07122 7.94585 4.38368 7.94585 3.53555V3.53555Z" fill="url(#paint5_linear_4791_569)"/>
<path d="M7.94585 3.53555C7.94585 2.68742 8.63339 1.99988 9.48152 1.99988H22.4715C23.3196 1.99988 24.0072 2.68742 24.0072 3.53555V3.53555C24.0072 4.38368 23.3196 5.07122 22.4715 5.07122H9.48152C8.63339 5.07122 7.94585 4.38368 7.94585 3.53555V3.53555Z" fill="url(#paint6_radial_4791_569)"/>
<rect x="22.9801" y="7.97009" width="2.06126" height="20.7465" rx="1.03063" fill="url(#paint7_linear_4791_569)"/>
<path d="M9.76452 13.4073C9.1928 13.4073 8.72932 13.8624 8.72932 14.4236V19.5051C8.72932 20.0663 9.1928 20.5213 9.76452 20.5213H22.2042C22.7759 20.5213 23.2394 20.0663 23.2394 19.5051V14.4236C23.2394 13.8624 22.7759 13.4073 22.2042 13.4073H9.76452Z" fill="url(#paint8_linear_4791_569)"/>
<defs>
<linearGradient id="paint0_linear_4791_569" x1="10.2963" y1="6.2306" x2="22.0328" y2="6.2306" gradientUnits="userSpaceOnUse">
<stop stop-color="#9E9EA2"/>
<stop offset="0.261682" stop-color="#7D808A"/>
<stop offset="1" stop-color="#9F9FA3"/>
</linearGradient>
<radialGradient id="paint1_radial_4791_569" cx="0" cy="0" r="1" gradientUnits="userSpaceOnUse" gradientTransform="translate(20.3248 4.60096) rotate(90) scale(1.50428 20.6212)">
<stop offset="0.310345" stop-color="#60626D"/>
<stop offset="0.625" stop-color="#5D6472" stop-opacity="0"/>
</radialGradient>
<linearGradient id="paint2_linear_4791_569" x1="4.84326" y1="18.0341" x2="27.1567" y2="18.0341" gradientUnits="userSpaceOnUse">
<stop stop-color="#BCDDFB"/>
<stop offset="0.227528" stop-color="#BEEFFF"/>
<stop offset="0.890449" stop-color="#C5F8FF"/>
<stop offset="1" stop-color="#B2D7F7"/>
</linearGradient>
<radialGradient id="paint3_radial_4791_569" cx="0" cy="0" r="1" gradientUnits="userSpaceOnUse" gradientTransform="translate(20.7009 7.54693) rotate(90) scale(1.31625 7.64676)">
<stop stop-color="#D0FFFF"/>
<stop offset="1" stop-color="#D1FFFF" stop-opacity="0"/>
</radialGradient>
<radialGradient id="paint4_radial_4791_569" cx="0" cy="0" r="1" gradientUnits="userSpaceOnUse" gradientTransform="translate(11.9259 28.6695) rotate(-90) scale(1.50428 9.83154)">
<stop stop-color="#CDFFFF"/>
<stop offset="1" stop-color="#CCFFFF" stop-opacity="0"/>
</radialGradient>
<linearGradient id="paint5_linear_4791_569" x1="15.9765" y1="1.99988" x2="15.9765" y2="5.07122" gradientUnits="userSpaceOnUse">
<stop stop-color="#C3C4C8"/>
<stop offset="0.275501" stop-color="#C7CDD6"/>
<stop offset="0.68365" stop-color="#AAB6C8"/>
<stop offset="1" stop-color="#81849A"/>
</linearGradient>
<radialGradient id="paint6_radial_4791_569" cx="0" cy="0" r="1" gradientUnits="userSpaceOnUse" gradientTransform="translate(21.3277 3.03407) rotate(90) scale(1.50428 11.7835)">
<stop stop-color="#E0E4EB"/>
<stop offset="1" stop-color="#E3E6ED" stop-opacity="0"/>
</radialGradient>
<linearGradient id="paint7_linear_4791_569" x1="24.0107" y1="7.97009" x2="24.0107" y2="28.7166" gradientUnits="userSpaceOnUse">
<stop offset="0.635196" stop-color="white"/>
<stop offset="1" stop-color="white" stop-opacity="0"/>
</linearGradient>
<linearGradient id="paint8_linear_4791_569" x1="8.72932" y1="16.9643" x2="23.2394" y2="16.9643" gradientUnits="userSpaceOnUse">
<stop stop-color="#A9A5B3"/>
<stop offset="0.557235" stop-color="#B2AEBC"/>
<stop offset="1" stop-color="#C9C7D2"/>
</linearGradient>
</defs>
</svg>

<svg width="32" height="32" fill="none" xmlns="http://www.w3.org/2000/svg"><path d="m22.033 5.072-6.049-1.138-6.048 1.138v.997l6.048 1.39 6.049-1.39v-.997Z" fill="url(#a)"/><path d="m22.033 5.072-6.049-1.138-6.048 1.138v.997l6.048 1.39 6.049-1.39v-.997Z" fill="url(#b)"/><path d="M7.78 6.068c-1.622 0-2.937 1.223-2.937 2.73V27.27c0 1.508 1.315 2.73 2.936 2.73h16.442c1.621 0 2.936-1.222 2.936-2.73V8.799c0-1.508-1.315-2.73-2.936-2.73H7.779Z" fill="url(#c)"/><path d="M7.78 6.068c-1.622 0-2.937 1.223-2.937 2.73V27.27c0 1.508 1.315 2.73 2.936 2.73h16.442c1.621 0 2.936-1.222 2.936-2.73V8.799c0-1.508-1.315-2.73-2.936-2.73H7.779Z" fill="url(#d)"/><path d="M7.78 6.068c-1.622 0-2.937 1.223-2.937 2.73V27.27c0 1.508 1.315 2.73 2.936 2.73h16.442c1.621 0 2.936-1.222 2.936-2.73V8.799c0-1.508-1.315-2.73-2.936-2.73H7.779Z" fill="url(#e)"/><path d="M7.946 3.536C7.946 2.687 8.633 2 9.482 2h12.99a1.536 1.536 0 0 1 0 3.071H9.481a1.536 1.536 0 0 1-1.536-1.535Z" fill="url(#f)"/><path d="M7.946 3.536C7.946 2.687 8.633 2 9.482 2h12.99a1.536 1.536 0 0 1 0 3.071H9.481a1.536 1.536 0 0 1-1.536-1.535Z" fill="url(#g)"/><rect x="22.98" y="7.97" width="2.061" height="20.747" rx="1.031" fill="url(#h)"/><path d="M9.765 13.407c-.572 0-1.036.455-1.036 1.017v5.081c0 .561.464 1.016 1.036 1.016h12.44c.57 0 1.034-.455 1.034-1.016v-5.081c0-.562-.463-1.017-1.035-1.017H9.764Z" fill="url(#i)"/><defs><linearGradient id="a" x1="10.296" y1="6.231" x2="22.033" y2="6.231" gradientUnits="userSpaceOnUse"><stop stop-color="#9E9EA2"/><stop offset=".262" stop-color="#7D808A"/><stop offset="1" stop-color="#9F9FA3"/></linearGradient><linearGradient id="c" x1="4.843" y1="18.034" x2="27.157" y2="18.034" gradientUnits="userSpaceOnUse"><stop stop-color="#BCDDFB"/><stop offset=".228" stop-color="#BEEFFF"/><stop offset=".89" stop-color="#C5F8FF"/><stop offset="1" stop-color="#B2D7F7"/></linearGradient><linearGradient id="f" x1="15.976" y1="2" x2="15.976" y2="5.071" gradientUnits="userSpaceOnUse"><stop stop-color="#C3C4C8"/><stop offset=".276" stop-color="#C7CDD6"/><stop offset=".684" stop-color="#AAB6C8"/><stop offset="1" stop-color="#81849A"/></linearGradient><linearGradient id="h" x1="24.011" y1="7.97" x2="24.011" y2="28.717" gradientUnits="userSpaceOnUse"><stop offset=".635" stop-color="#fff"/><stop offset="1" stop-color="#fff" stop-opacity="0"/></linearGradient><linearGradient id="i" x1="8.729" y1="16.964" x2="23.239" y2="16.964" gradientUnits="userSpaceOnUse"><stop stop-color="#A9A5B3"/><stop offset=".557" stop-color="#B2AEBC"/><stop offset="1" stop-color="#C9C7D2"/></linearGradient><radialGradient id="b" cx="0" cy="0" r="1" gradientUnits="userSpaceOnUse" gradientTransform="matrix(0 1.50428 -20.6212 0 20.325 4.601)"><stop offset=".31" stop-color="#60626D"/><stop offset=".625" stop-color="#5D6472" stop-opacity="0"/></radialGradient><radialGradient id="d" cx="0" cy="0" r="1" gradientUnits="userSpaceOnUse" gradientTransform="matrix(0 1.31625 -7.64676 0 20.7 7.547)"><stop stop-color="#D0FFFF"/><stop offset="1" stop-color="#D1FFFF" stop-opacity="0"/></radialGradient><radialGradient id="e" cx="0" cy="0" r="1" gradientUnits="userSpaceOnUse" gradientTransform="matrix(0 -1.50428 9.83154 0 11.926 28.67)"><stop stop-color="#CDFFFF"/><stop offset="1" stop-color="#CFF" stop-opacity="0"/></radialGradient><radialGradient id="g" cx="0" cy="0" r="1" gradientUnits="userSpaceOnUse" gradientTransform="matrix(0 1.50428 -11.7835 0 21.328 3.034)"><stop stop-color="#E0E4EB"/><stop offset="1" stop-color="#E3E6ED" stop-opacity="0"/></radialGradient></defs></svg>
